X:26
T:Darby Gallagher’s (x3) / Miltimber Jig (x3) / The Tea Bag (x3)
R: jig
M: 6/8
L: 1/8
Q:3/8=110
K:Amix
| C6 | C3 C3 |
K:Amix
|: cBA ecA | fed cBA | def gfg | BBB Bed |
   cBA ecA | fed cBA | c2A BA^G |1 ABA Aed :|2 ABA Af=g |
|: agf gfe | fed ecA | def gfg | BBB Bfg |
   agf gfe | fed ecA | c2A BA^G |1 ABA Af=g :|2 ABA Aed |
%
|: cBA ecA | fed cBA | def gfg | BBB Bed |
   cBA ecA | fed cBA | c2A BA^G |1 ABA Aed :|2 ABA Af=g |
|: agf gfe | fed ecA | def gfg | BBB Bfg |
   agf gfe | fed ecA | c2A BA^G |1 ABA Af=g :|2 ABA Aed |
%
|: cBA ecA | fed cBA | def gfg | BBB Bed |
   cBA ecA | fed cBA | c2A BA^G |1 ABA Aed :|2 ABA Af=g |
|: agf gfe | fed ecA | def gfg | BBB Bfg |
   agf gfe | fed ecA | c2A BA^G |1 ABA Af=g :|2 ABA Aed |
%
% Miltimber Jig (x3)
K:D
%
|: AFD A,DF | Adf a2a | gfe dcB | ABA GFE |
   AFD A,DF | Adf a2a | gfe cAa |1 fdd d3 :|2 fdd d2e
|: f2f fga | g2g gef | gfe dcB | AaA a2g |
   f2f fga | g2g gef | gfe cAa |1 fdd d2e :|2 fdd d3 ||
%
|: AFD A,DF | Adf a2a | gfe dcB | ABA GFE |
   AFD A,DF | Adf a2a | gfe cAa |1 fdd d3 :|2 fdd d2e
|: f2f fga | g2g gef | gfe dcB | AaA a2g |
   f2f fga | g2g gef | gfe cAa |1 fdd d2e :|2 fdd d3 ||
%
|: AFD A,DF | Adf a2a | gfe dcB | ABA GFE |
   AFD A,DF | Adf a2a | gfe cAa |1 fdd d3 :|2 fdd d2e
|: f2f fga | g2g gef | gfe dcB | AaA a2g |
   f2f fga | g2g gef | gfe cAa |1 fdd d2e :|2 fdd d3 ||
%
% The Tea Bag
K:A
%
|: ecA Bcd | ecA BAF | EAA GAB | cc/c/c Bcd |
   ecA Bcd | ecA BAF | EAA GAB |1 EcB A2a :|2 EcB A2c |
|: B2B BAF | B2B Bdc | B2B BAF | AcB A2c |
   B2B BAF | B2B Bcd |1 ecA BAF | EcB A2c :|2 ece fec | ABc dfa ||
%
|: ecA Bcd | ecA BAF | EAA GAB | cc/c/c Bcd |
   ecA Bcd | ecA BAF | EAA GAB |1 EcB A2a :|2 EcB A2c |
|: B2B BAF | B2B Bdc | B2B BAF | AcB A2c |
   B2B BAF | B2B Bcd |1 ecA BAF | EcB A2c :|2 ece fec | ABc dfa ||
%
|: ecA Bcd | ecA BAF | EAA GAB | cc/c/c Bcd |
   ecA Bcd | ecA BAF | EAA GAB |1 EcB A2a :|2 EcB A2c |
|: B2B BAF | B2B Bdc | B2B BAF | AcB A2c |
   B2B BAF | B2B Bcd |1 ecA BAF | EcB A2c :|2 ece fec | ABc dfa ||
%

